flaticon/emoticons/miserly.svg

<svg xmlns="http://www.w3.org/2000/svg" width="32" height="32" viewBox="0 0 24 24">
    <path d="M14.597656 10.199219C13.394531 10.199219 12.359375 10.914062 11.882812 11.9375 11.554688 11.605469 11.101562 11.398438 10.601562 11.398438 10.097656 11.398438 9.644531 11.605469 9.316406 11.9375 8.839844 10.914062 7.804688 10.199219 6.601562 10.199219 4.945312 10.199219 3.601562 11.542969 3.601562 13.199219 3.601562 14.851562 4.945312 16.199219 6.601562 16.199219 8.253906 16.199219 9.601562 14.851562 9.601562 13.199219 9.601562 12.648438 10.046875 12.199219 10.601562 12.199219 11.152344 12.199219 11.601562 12.648438 11.601562 13.199219 11.601562 14.851562 12.945312 16.199219 14.597656 16.199219 16.253906 16.199219 17.597656 14.851562 17.597656 13.199219 17.597656 11.542969 16.253906 10.199219 14.597656 10.199219zM6.601562 15.398438C5.386719 15.398438 4.398438 14.410156 4.398438 13.199219 4.398438 11.988281 5.386719 11 6.601562 11 7.8125 11 8.800781 11.988281 8.800781 13.199219 8.800781 14.410156 7.8125 15.398438 6.601562 15.398438zM14.597656 15.398438C13.386719 15.398438 12.398438 14.410156 12.398438 13.199219 12.398438 11.988281 13.386719 11 14.597656 11 15.8125 11 16.800781 11.988281 16.800781 13.199219 16.800781 14.410156 15.8125 15.398438 14.597656 15.398438zM8.398438 17C8.179688 17 8 17.179688 8 17.398438 8 17.621094 8.179688 17.800781 8.398438 17.800781 11.226562 17.800781 13.199219 18.429688 13.199219 19 13.199219 19.21875 13.378906 19.398438 13.597656 19.398438 13.820312 19.398438 14 19.21875 14 19 14 17.09375 9.335938 17 8.398438 17zM8.398438 17"/>
    <path d="M6.621094 9.355469L9.019531 10.558594C9.078125 10.585938 9.140625 10.597656 9.199219 10.597656 9.347656 10.597656 9.488281 10.519531 9.558594 10.378906 9.65625 10.179688 9.578125 9.941406 9.378906 9.839844L6.980469 8.640625C6.78125 8.542969 6.542969 8.621094 6.441406 8.820312 6.34375 9.019531 6.421875 9.257812 6.621094 9.355469zM12 10.597656C12.058594 10.597656 12.121094 10.585938 12.179688 10.558594L14.578125 9.355469C14.777344 9.257812 14.855469 9.019531 14.757812 8.820312 14.65625 8.625 14.417969 8.542969 14.21875 8.640625L11.820312 9.839844C11.621094 9.941406 11.542969 10.179688 11.640625 10.378906 11.710938 10.519531 11.851562 10.597656 12 10.597656zM12 10.597656"/>
    <path d="M 23.917969 10.625 C 23.757812 9.949219 23.371094 9.363281 22.886719 9.066406 C 22.5625 8.867188 22.214844 8.800781 21.882812 8.882812 C 21.808594 8.898438 21.734375 8.925781 21.664062 8.960938 C 20.730469 6.6875 19.273438 5.214844 17.777344 4.261719 L 18.316406 3.179688 C 18.414062 2.980469 18.335938 2.742188 18.136719 2.640625 C 17.941406 2.542969 17.699219 2.625 17.601562 2.820312 L 17.082031 3.855469 C 16.835938 3.726562 16.589844 3.605469 16.347656 3.5 L 16.738281 2.328125 C 16.808594 2.117188 16.695312 1.890625 16.484375 1.820312 C 16.277344 1.75 16.050781 1.863281 15.980469 2.074219 L 15.601562 3.203125 C 15.328125 3.105469 15.058594 3.019531 14.800781 2.945312 L 15.140625 1.925781 C 15.210938 1.714844 15.097656 1.488281 14.886719 1.421875 C 14.675781 1.347656 14.449219 1.464844 14.378906 1.671875 L 14.019531 2.753906 C 13.515625 2.648438 13.078125 2.589844 12.757812 2.558594 L 12.757812 1.800781 C 12.757812 1.578125 12.582031 1.398438 12.359375 1.398438 C 12.140625 1.398438 11.960938 1.578125 11.960938 1.800781 L 11.960938 2.535156 C 11.75 2.546875 11.382812 2.574219 10.90625 2.648438 L 10.753906 1.734375 C 10.71875 1.515625 10.511719 1.367188 10.292969 1.40625 C 10.074219 1.441406 9.929688 1.648438 9.964844 1.867188 L 10.121094 2.796875 C 9.691406 2.894531 9.21875 3.027344 8.71875 3.207031 L 8.339844 2.074219 C 8.269531 1.863281 8.042969 1.75 7.832031 1.820312 C 7.625 1.890625 7.511719 2.117188 7.582031 2.328125 L 7.972656 3.5 C 7.625 3.652344 7.273438 3.828125 6.921875 4.03125 L 6.316406 2.820312 C 6.21875 2.625 5.980469 2.542969 5.78125 2.640625 C 5.582031 2.742188 5.503906 2.980469 5.601562 3.179688 L 6.242188 4.457031 C 5.890625 4.699219 5.542969 4.972656 5.203125 5.277344 L 4.242188 4.316406 C 4.085938 4.160156 3.832031 4.160156 3.675781 4.316406 C 3.519531 4.472656 3.519531 4.726562 3.675781 4.882812 L 4.628906 5.835938 C 3.402344 7.144531 2.375 8.972656 1.902344 11.523438 C 1.894531 11.554688 1.890625 11.589844 1.886719 11.621094 C 1.785156 11.59375 1.679688 11.574219 1.574219 11.574219 C 0.691406 11.574219 0 12.527344 0 13.746094 C 0 14.960938 0.691406 15.914062 1.574219 15.914062 C 1.738281 15.914062 1.894531 15.875 2.046875 15.808594 C 2.328125 16.875 2.792969 17.878906 3.429688 18.757812 C 4.707031 20.519531 7.21875 22.601562 11.9375 22.601562 C 12.011719 22.601562 12.082031 22.601562 12.15625 22.597656 C 17.015625 22.667969 19.585938 20.546875 20.882812 18.757812 C 22.035156 17.171875 22.621094 15.179688 22.574219 13.128906 C 22.589844 13.128906 22.601562 13.132812 22.617188 13.132812 C 22.707031 13.132812 22.796875 13.121094 22.886719 13.101562 C 23.746094 12.898438 24.199219 11.808594 23.917969 10.625 Z M 1.871094 14.996094 C 1.789062 15.0625 1.6875 15.113281 1.574219 15.113281 C 1.207031 15.113281 0.800781 14.550781 0.800781 13.746094 C 0.800781 12.9375 1.207031 12.375 1.574219 12.375 C 1.640625 12.375 1.710938 12.394531 1.777344 12.429688 C 1.757812 12.644531 1.746094 12.855469 1.738281 13.070312 C 1.738281 13.082031 1.738281 13.097656 1.738281 13.109375 C 1.734375 13.289062 1.734375 13.464844 1.738281 13.640625 C 1.742188 13.695312 1.742188 13.75 1.746094 13.804688 C 1.753906 13.949219 1.761719 14.09375 1.777344 14.234375 C 1.78125 14.292969 1.785156 14.347656 1.789062 14.40625 C 1.808594 14.578125 1.832031 14.753906 1.859375 14.925781 C 1.863281 14.949219 1.867188 14.972656 1.871094 14.996094 Z M 20.234375 18.289062 C 18.507812 20.667969 15.796875 21.867188 12.160156 21.800781 L 12.152344 21.800781 C 8.511719 21.84375 5.804688 20.667969 4.078125 18.289062 C 3.253906 17.152344 2.746094 15.785156 2.585938 14.34375 C 2.582031 14.3125 2.582031 14.28125 2.582031 14.25 C 2.558594 14.019531 2.542969 13.792969 2.539062 13.558594 C 2.539062 13.460938 2.539062 13.359375 2.539062 13.257812 C 2.542969 13.09375 2.546875 12.933594 2.558594 12.769531 C 2.566406 12.652344 2.574219 12.535156 2.585938 12.414062 C 2.613281 12.167969 2.640625 11.917969 2.6875 11.667969 C 3.125 9.296875 4.0625 7.601562 5.183594 6.386719 L 5.675781 6.882812 C 5.753906 6.960938 5.855469 7 5.960938 7 C 6.0625 7 6.164062 6.960938 6.242188 6.882812 C 6.398438 6.726562 6.398438 6.472656 6.242188 6.316406 L 5.75 5.824219 C 6.023438 5.578125 6.304688 5.351562 6.589844 5.152344 L 6.800781 5.578125 C 6.871094 5.71875 7.011719 5.800781 7.160156 5.800781 C 7.21875 5.800781 7.28125 5.785156 7.339844 5.757812 C 7.535156 5.660156 7.617188 5.417969 7.515625 5.222656 L 7.265625 4.71875 C 7.582031 4.535156 7.902344 4.371094 8.214844 4.230469 L 8.378906 4.726562 C 8.4375 4.894531 8.589844 5 8.757812 5 C 8.800781 5 8.84375 4.992188 8.886719 4.980469 C 9.09375 4.910156 9.207031 4.683594 9.136719 4.472656 L 8.957031 3.933594 C 9.417969 3.769531 9.851562 3.652344 10.25 3.566406 L 10.363281 4.265625 C 10.398438 4.460938 10.566406 4.601562 10.757812 4.601562 C 10.78125 4.601562 10.800781 4.597656 10.824219 4.59375 C 11.042969 4.558594 11.191406 4.351562 11.152344 4.136719 L 11.035156 3.425781 C 11.445312 3.367188 11.765625 3.34375 11.960938 3.335938 L 11.960938 4.199219 C 11.960938 4.421875 12.136719 4.601562 12.359375 4.601562 C 12.578125 4.601562 12.757812 4.421875 12.757812 4.199219 L 12.757812 3.371094 C 13.027344 3.394531 13.367188 3.441406 13.765625 3.519531 L 13.578125 4.074219 C 13.507812 4.28125 13.621094 4.507812 13.832031 4.578125 C 13.875 4.59375 13.917969 4.601562 13.957031 4.601562 C 14.125 4.601562 14.28125 4.492188 14.339844 4.328125 L 14.546875 3.703125 C 14.804688 3.773438 15.074219 3.855469 15.351562 3.953125 L 15.179688 4.472656 C 15.109375 4.683594 15.222656 4.910156 15.433594 4.980469 C 15.472656 4.992188 15.515625 5 15.558594 5 C 15.726562 5 15.882812 4.894531 15.9375 4.726562 L 16.097656 4.253906 C 16.167969 4.285156 16.238281 4.3125 16.308594 4.347656 C 16.453125 4.417969 16.589844 4.488281 16.730469 4.5625 L 16.402344 5.222656 C 16.300781 5.417969 16.382812 5.660156 16.578125 5.757812 C 16.636719 5.785156 16.699219 5.800781 16.757812 5.800781 C 16.90625 5.800781 17.046875 5.71875 17.117188 5.578125 L 17.421875 4.96875 C 19.089844 6.042969 20.300781 7.574219 21.035156 9.539062 L 21.035156 9.542969 L 21.109375 9.746094 C 21.21875 10.054688 21.3125 10.359375 21.394531 10.667969 C 21.402344 10.6875 21.40625 10.707031 21.410156 10.726562 C 21.492188 11.035156 21.5625 11.347656 21.625 11.667969 C 21.671875 11.929688 21.703125 12.195312 21.730469 12.457031 C 21.734375 12.507812 21.742188 12.558594 21.746094 12.609375 C 21.914062 14.675781 21.386719 16.703125 20.234375 18.289062 Z M 22.699219 12.324219 C 22.644531 12.335938 22.585938 12.335938 22.523438 12.324219 C 22.523438 12.308594 22.519531 12.296875 22.519531 12.28125 C 22.492188 12.03125 22.457031 11.777344 22.410156 11.527344 C 22.410156 11.523438 22.410156 11.523438 22.410156 11.523438 C 22.410156 11.515625 22.410156 11.511719 22.40625 11.507812 C 22.351562 11.203125 22.285156 10.910156 22.214844 10.625 C 22.207031 10.597656 22.199219 10.574219 22.191406 10.546875 C 22.117188 10.261719 22.035156 9.992188 21.949219 9.730469 C 21.949219 9.726562 21.945312 9.722656 21.945312 9.714844 C 21.984375 9.6875 22.027344 9.671875 22.070312 9.660156 C 22.222656 9.621094 22.371094 9.6875 22.46875 9.746094 C 22.769531 9.933594 23.027344 10.339844 23.140625 10.8125 C 23.324219 11.597656 23.058594 12.238281 22.699219 12.324219 Z M 22.699219 12.324219"/>
</svg>

<svg xmlns="http://www.w3.org/2000/svg" width="32" height="32" viewBox="0 0 24 24">
    <path d="M14.598 10.2a2.998 2.998 0 0 0-2.715 1.738 1.798 1.798 0 0 0-2.567 0 2.998 2.998 0 0 0-2.714-1.739 3 3 0 0 0 0 6c1.652 0 3-1.347 3-3a1 1 0 1 1 2 0c0 1.653 1.343 3 2.996 3a3 3 0 0 0 0-6zm-7.996 5.198A2.205 2.205 0 0 1 4.398 13.2c0-1.21.989-2.199 2.204-2.199 1.21 0 2.199.988 2.199 2.2 0 1.21-.989 2.198-2.2 2.198zm7.996 0c-1.211 0-2.2-.988-2.2-2.199 0-1.21.989-2.199 2.2-2.199 1.214 0 2.203.988 2.203 2.2 0 1.21-.988 2.198-2.203 2.198zm0 0M8.398 17a.4.4 0 0 0 0 .8c2.829 0 4.801.63 4.801 1.2A.4.4 0 0 0 14 19c0-1.906-4.664-2-5.602-2zm0 0"/>
    <path d="M6.621 9.355L9.02 10.56c.058.027.12.039.18.039.148 0 .288-.078.359-.22a.403.403 0 0 0-.18-.538L6.98 8.64a.403.403 0 0 0-.539.18c-.097.2-.02.438.18.535zm0 0M12 10.598a.427.427 0 0 0 .18-.04l2.398-1.203a.397.397 0 0 0 .18-.535.406.406 0 0 0-.54-.18l-2.398 1.2a.403.403 0 0 0-.18.539c.07.14.212.219.36.219zm0 0"/>
    <path d="M23.918 10.625c-.16-.676-.547-1.262-1.031-1.559-.325-.199-.672-.265-1.004-.183a.916.916 0 0 0-.219.078c-.934-2.274-2.39-3.746-3.887-4.7l.54-1.081a.403.403 0 0 0-.18-.54.402.402 0 0 0-.535.18l-.52 1.035c-.246-.128-.492-.25-.734-.355l.39-1.172a.4.4 0 0 0-.254-.508.398.398 0 0 0-.504.254l-.378 1.13a13.462 13.462 0 0 0-.801-.259l.34-1.02a.395.395 0 0 0-.254-.503.399.399 0 0 0-.508.25l-.36 1.082a11.86 11.86 0 0 0-1.261-.195V1.8a.398.398 0 1 0-.797 0v.734c-.211.012-.578.04-1.055.113l-.152-.914a.396.396 0 0 0-.461-.328.4.4 0 0 0-.328.461l.156.93c-.43.098-.902.23-1.402.41l-.38-1.133a.4.4 0 0 0-.507-.254.402.402 0 0 0-.25.508l.39 1.172c-.347.152-.699.328-1.05.531l-.606-1.21a.4.4 0 0 0-.535-.18.403.403 0 0 0-.18.539l.641 1.277c-.351.242-.699.516-1.039.82l-.96-.96a.4.4 0 0 0-.567.566l.953.953c-1.227 1.309-2.254 3.137-2.727 5.687-.007.032-.011.067-.015.098a1.21 1.21 0 0 0-.313-.047c-.883 0-1.574.953-1.574 2.172 0 1.215.691 2.168 1.574 2.168.164 0 .32-.039.473-.105a8.885 8.885 0 0 0 1.383 2.949c1.277 1.762 3.789 3.844 8.508 3.844.074 0 .144 0 .218-.004 4.86.07 7.43-2.051 8.727-3.84 1.152-1.586 1.738-3.578 1.691-5.63.016 0 .028.005.043.005.09 0 .18-.012.27-.031.86-.204 1.312-1.293 1.031-2.477zM1.871 14.996a.477.477 0 0 1-.297.117c-.367 0-.773-.562-.773-1.367 0-.809.406-1.371.773-1.371a.44.44 0 0 1 .203.055c-.02.215-.03.425-.039.64v.04c-.004.18-.004.355 0 .53.004.055.004.11.008.165.008.144.016.289.031.43l.012.171c.02.172.043.348.07.52l.012.07zm18.363 3.293c-1.726 2.379-4.437 3.578-8.074 3.512h-.008c-3.64.043-6.347-1.133-8.074-3.512-.824-1.137-1.332-2.504-1.492-3.945-.004-.031-.004-.063-.004-.094a8.11 8.11 0 0 1-.043-.691v-.301a10.2 10.2 0 0 1 .047-.844c.027-.246.055-.496.102-.746.437-2.371 1.374-4.066 2.496-5.281l.492.496a.399.399 0 0 0 .566 0 .4.4 0 0 0 0-.567l-.492-.492c.273-.246.555-.472.84-.672l.21.426a.4.4 0 0 0 .54.18.397.397 0 0 0 .176-.535l-.25-.504c.316-.184.636-.348.949-.489l.164.497a.401.401 0 0 0 .508.253.402.402 0 0 0 .25-.507l-.18-.54c.461-.163.895-.28 1.293-.367l.113.7a.405.405 0 0 0 .395.336c.023 0 .043-.004.066-.008a.395.395 0 0 0 .328-.457l-.117-.711c.41-.059.73-.082.926-.09v.863a.398.398 0 1 0 .797 0v-.828c.27.024.61.07 1.008.149l-.188.554a.398.398 0 0 0 .254.504.37.37 0 0 0 .125.024c.168 0 .324-.11.383-.274l.207-.625c.258.07.527.152.805.25l-.172.52a.4.4 0 0 0 .379.527.397.397 0 0 0 .379-.273l.16-.473c.07.031.14.059.21.094.145.07.282.14.422.215l-.328.66a.397.397 0 0 0 .356.578.4.4 0 0 0 .36-.223l.304-.61C19.09 6.044 20.3 7.575 21.035 9.54v.004l.074.203c.11.309.203.613.286.922a14.36 14.36 0 0 1 .23 1c.047.262.078.527.105.789.004.05.012.102.016.152.168 2.067-.36 4.094-1.512 5.68zm2.465-5.965a.443.443 0 0 1-.176 0c0-.015-.003-.027-.003-.043-.028-.25-.063-.504-.11-.754v-.004c0-.007 0-.011-.004-.015a14.016 14.016 0 0 0-.191-.883l-.024-.078a13.503 13.503 0 0 0-.242-.817c0-.003-.004-.007-.004-.015a.394.394 0 0 1 .125-.055c.153-.039.301.027.399.086.3.188.558.594.672 1.066.183.786-.082 1.426-.442 1.512zm0 0"/>
</svg>
